.local/share/icons/Gruvbox-Plus-Dark/panel/24/pomodoneapp-started.svg

<svg width="24" height="24" version="1.1" xmlns="http://www.w3.org/2000/svg">
  <defs>
    <style id="current-color-scheme" type="text/css">.ColorScheme-Text { color:#ebdbb2; } .ColorScheme-Highlight { color:#458588; } .ColorScheme-NeutralText { color:#fe8019; } .ColorScheme-PositiveText { color:#689d6a; } .ColorScheme-NegativeText { color:#fb4934; }</style>
  </defs>
  <path class="ColorScheme-Text" d="m12 4c-4.418-1e-7 -8 3.582-8 8 0 4.418 3.582 8 8 8s8-3.582 8-8c0-4.418-3.582-8-8-8zm-2.5 4h5c0.831 0 1.5 0.669 1.5 1.5v5c0 0.831-0.669 1.5-1.5 1.5h-5c-0.831 0-1.5-0.669-1.5-1.5v-5c0-0.831 0.669-1.5 1.5-1.5zm2 1c-0.277 0-0.5 0.223-0.5 0.5v3c0 0.277 0.223 0.5 0.5 0.5h3c0.277 0 0.5-0.223 0.5-0.5v-1c0-0.277-0.223-0.5-0.5-0.5h-1.5v-1.5c0-0.277-0.223-0.5-0.5-0.5z" fill="currentColor"/>
</svg>

<svg xmlns="http://www.w3.org/2000/svg" width="24" height="24" version="1.1">
 <defs>
  <style id="current-color-scheme" type="text/css">
   .ColorScheme-Text { color:#ebdbb2; } .ColorScheme-Highlight { color:#458588; }
  </style>
 </defs>
 <path style="fill:currentColor" class="ColorScheme-Text" d="m 12,4 c -4.4182781,-10e-8 -8.0000001,3.5817219 -8,8 0,4.418278 3.581722,8 8,8 4.418278,0 8,-3.581722 8,-8 C 20,7.5817219 16.418278,4 12,4 Z M 9.5,8 h 5 C 15.331,8 16,8.669 16,9.5 v 5 c 0,0.831 -0.669,1.5 -1.5,1.5 h -5 C 8.669,16 8,15.331 8,14.5 v -5 C 8,8.669 8.669,8 9.5,8 Z m 2,1 C 11.223,9 11,9.223 11,9.5 v 2 1 c 0,0.277 0.223,0.5 0.5,0.5 h 3 c 0.277,0 0.5,-0.223 0.5,-0.5 v -1 C 15,11.223 14.777,11 14.5,11 H 13 V 9.5 C 13,9.223 12.777,9 12.5,9 Z"/>
</svg>
